X: 032216
T: Cumbernauld House
S: Fitzmaurice Collection
N: original key signature is D
L: 1/8
M: 6/8
R: jig
Q: 1/4=160
K: A
(3A/B/c/| dfd cec | BAB cAF | EFA Adc | BAB cAF |
dff cee | BAB cAF | EFA BAB | cAA A2 :|
z | agf edc | dfd ecA | agf edc | fdB B3 |
agf edc | dfd ecA | EFA BAB | cAA A2 :|
z | Ace Ace | Adf Adf | Ace Ace | fdB BAF |
A/c/ee A/c/ee | A/d/ff A/d/ff | EFA BAB | cAA A2 :|
